static/logos/olx-wordmark-color.svg

<svg width="50" height="29" viewBox="0 0 50 29" fill="none" xmlns="http://www.w3.org/2000/svg">
<g clip-path="url(#clip0_1_1818)">
<path fill-rule="evenodd" clip-rule="evenodd" d="M32.7347 28.5714H25.9668V0H32.7347V28.5714ZM23.55 14.3204C23.55 20.824 18.2765 26.0867 11.7796 26.0867C5.28214 26.0867 0 20.8153 0 14.3204C0 7.82551 5.27347 2.55357 11.7704 2.55357C18.2679 2.55357 23.55 7.81633 23.55 14.3204V14.3204ZM15.3316 14.3204C15.332 13.8533 15.2403 13.3908 15.0617 12.9592C14.8831 12.5276 14.6211 12.1355 14.2907 11.8053C13.9603 11.4751 13.5681 11.2134 13.1364 11.035C12.7047 10.8566 12.2421 10.7651 11.775 10.7658C11.3079 10.7651 10.8453 10.8566 10.4136 11.035C9.98193 11.2134 9.58968 11.4751 9.25931 11.8053C8.92893 12.1355 8.66694 12.5276 8.48832 12.9592C8.3097 13.3908 8.21796 13.8533 8.21837 14.3204C8.21803 14.7874 8.3098 15.2499 8.48842 15.6814C8.66703 16.1129 8.929 16.5049 9.25931 16.835C9.58962 17.1651 9.98179 17.4269 10.4134 17.6052C10.845 17.7836 11.3075 17.8751 11.7745 17.8745C12.2416 17.8752 12.7042 17.7838 13.1359 17.6055C13.5676 17.4272 13.9599 17.1655 14.2903 16.8354C14.6208 16.5052 14.8828 16.1132 15.0615 15.6816C15.2402 15.25 15.332 14.7875 15.3316 14.3204V14.3204ZM49.9133 7.17755H45.4153L42.7745 9.8148L40.1337 7.17704H35.6347V11.7485L38.2403 14.3505L35.6347 16.9531V21.4633H40.2036L42.7827 18.8872L45.3617 21.4633H49.9306V16.9531L47.325 14.351L49.9306 11.749V7.17755H49.9128H49.9133Z" fill="#002F34"/>
</g>
<defs>
<clipPath id="clip0_1_1818">
<rect width="50" height="28.5714" fill="white"/>
</clipPath>
</defs>
</svg>

<svg xmlns="http://www.w3.org/2000/svg" width="110.345" height="64" fill="none" viewBox="0 0 50 29"><g clip-path="url(#a)"><path fill="#002F34" fill-rule="evenodd" d="M32.735 28.571h-6.768V0h6.768v28.571Zm-9.185-14.25c0 6.503-5.274 11.766-11.77 11.766C5.282 26.087 0 20.815 0 14.32 0 7.826 5.273 2.554 11.77 2.554c6.498 0 11.78 5.262 11.78 11.766Zm-8.218 0a3.552 3.552 0 0 0-3.557-3.555 3.55 3.55 0 0 0-3.557 3.554 3.552 3.552 0 0 0 3.556 3.555 3.552 3.552 0 0 0 3.558-3.555Zm34.581-7.143h-4.498l-2.64 2.637-2.641-2.638h-4.5v4.572l2.606 2.601-2.605 2.603v4.51h4.569l2.579-2.576 2.579 2.576h4.569v-4.51l-2.606-2.602 2.606-2.602V7.178h-.018Z" clip-rule="evenodd"/></g><defs><clipPath id="a"><path fill="#fff" d="M0 0h50v28.571H0z"/></clipPath></defs></svg>
